X:1
T:The Farmers Daughter  "CYMRU"
M:C
L:1/8
Q:80
C:
S:Reel
K:HP
[| B | \
{Gdc}d3e{gfg}f2{g}ef | \
{Gdc}d2{g}d/2e3/2{Gdc}d2{g}d/2B3/2 | \
{Gdc}d3e{gfg}f2{g}ef |
{gAGAG}A2{g}e3/2d/2c2{GdGe}AB | | \
{Gdc}d3e{gfg}f2{g}ef | \
{Gdc}d2{g}d/2e3/2{Gdc}d2{g}d/2B3/2 |
{gf}g2a3/2g/2{a}f2{g}e3/2f/2 | \
{gAGAG}A2{g}e3/2d/2{g}c2{GdGe}A|] [ | \
B |
{Gdc}d2{g}f3/2B/2{g}B/2{d}B3/2{g}f3/2B/2 | \
{g}c/2{d}B3/2{g}f3/2B/2{g}c3/2{d}B/2{e}B{d}c | \
{Gdc}d2{g}e3/2A/2{g}A/2{d}A3/2{g}e3/2A/2 |
{g}c/2{d}A3/2{g}e3/2A/2{g}c2{GdGe}A{e}B | | \
{Gdc}d2{g}f3/2B/2{g}B/2{d}B3/2{g}f3/2B/2 | \
{g}c/2{d}B3/2{g}f3/2B/2{g}c3/2{d}B/2{e}B{d}c |
{Gdc}d2a3/2g/2{a}f2{g}e3/2f/2 | \
{gAGAG}A2{g}e3/2d/2{g}c2{GdGe}A|]
